X: 6401
T: Castle Kelly
R: reel
M: 4/4
K: Adorian
|:"Am"A2 cA (3AAA cA|"G"GE (3EEE G2 EG|"Am"A2 cA "G"GAcd|"Em"egdB "Am"cA (3AAA|
"Am"A2 cA (3AAA cA|"G"GE (3EEE G2 EG|"Am"A2 cA "G"GAcd|"Em"egdB "Am"cA (3AAA:|
|:"Am"agec "G"(3ddd ed|"Am"cAGE "G"G3 A|"Am"agec "G"(3ddd cd|"Em"eaag "Am" a3 e|
"Am"agec "G"(3ddd ed|"Am"cAGE "G"G3 A|"Am"A2 cA "G"GAcd|"Em"egdB "Am"cA (3AAA:|

